X: 146
T: Shawei
L: 1/8
M: 2/4
K: Eb
e2G3/ B/ [I:setbarnb 1]| 
c d c B | 
e2G B | 
c2B c | 
e2z2 | 
e2c3/ B/ | 
G B c G | 
B4 | 
B> ce2 | 
c d c B | 
E2E C | 
E3F | 
G4 | 
z G G G | 
G2e2 | 
c BE2 | 
E> FB2 | 
G2(3F E C | 
B,4 |]

@@@ Tune index: 9020
